X: 1
T: Short Apron
C: Traditional
L: 1/8
M: 6/8
R: Jig
Q: 1/4 = 168
K: F
f | cAA fAA | aAA cGG |1 cAA aAA | aAc ~d2  :|2 AGF fga | ge^c d2 ||
c |Acd cAF | (A/B/c)A (G2 B) |1 Acd cAF | f2 e d2 :|2 AGF f>ga | ge^c d2 ||
